Origami/48x48/apps/Ri-li.svg

<svg width="48" height="48" version="1" xmlns="http://www.w3.org/2000/svg">
 <rect transform="matrix(0,-1,-1,0,0,0)" x="-44" y="-44" width="40" height="40" rx="2" ry="2" style="fill:#52845f"/>
 <path d="m6 4c-1.108 0-2 0.892-2 2v1c0-1.108 0.892-2 2-2h36c1.108 0 2 0.892 2 2v-1c0-1.108-0.892-2-2-2h-36z" fill="#fff" opacity=".2"/>
 <path d="m6 45c-1.108 0-2-0.892-2-2v-1c0 1.108 0.892 2 2 2h36c1.108 0 2-0.892 2-2v1c0 1.108-0.892 2-2 2h-36z" opacity=".2"/>
 <path d="m12.427734 17c-1.300881 0-2.427734 1.105151-2.427734 2.423828v9.152344c0 1.318677 1.126853 2.423828 2.427734 2.423828h11.572266v14h4v-16a2.0002 2.0002 0 0 0 -2 -2h-12v-6h20v24h4v-25.576172c0-1.318677-1.126853-2.423828-2.427734-2.423828z" style="opacity:.2"/>
 <path d="m12.427734 16c-1.300881 0-2.427734 1.105151-2.427734 2.423828v9.152344c0 1.318677 1.126853 2.423828 2.427734 2.423828h11.572266v14h4v-16a2.0002 2.0002 0 0 0 -2 -2h-12v-6h20v2.427734 5.148438 16.423828h4v-16.423828-5.148438-4.003906c0-1.318677-1.126853-2.423828-2.427734-2.423828h-23.144532z" style="fill:#fbc295"/>
 <path d="m12.427734 16c-1.300881 0-2.427734 1.105151-2.427734 2.423828v1c0-1.318677 1.126853-2.423828 2.427734-2.423828h23.144532c1.300881 0 2.427734 1.105151 2.427734 2.423828v-1c0-1.318677-1.126853-2.423828-2.427734-2.423828h-23.144532zm1.572266 10v1h12a2.0002 2.0002 0 0 1 2 2v-1a2.0002 2.0002 0 0 0 -2 -2h-12z" style="fill:#ffffff;opacity:.2"/>
</svg>

<svg xmlns="http://www.w3.org/2000/svg" width="48" height="48" version="1">
 <rect style="fill:#52845f" width="40" height="40" x="-44" y="-44" rx="2" ry="2" transform="matrix(0,-1,-1,0,0,0)"/>
 <path fill="#fff" opacity=".2" d="m6 4c-1.108 0-2 0.892-2 2v1c0-1.108 0.892-2 2-2h36c1.108 0 2 0.892 2 2v-1c0-1.108-0.892-2-2-2h-36z"/>
 <path opacity=".2" d="m6 45c-1.108 0-2-0.892-2-2v-1c0 1.108 0.892 2 2 2h36c1.108 0 2-0.892 2-2v1c0 1.108-0.892 2-2 2h-36z"/>
 <path style="opacity:0.2" d="M 12.427734,17 C 11.126853,17 10,18.105151 10,19.423828 v 9.152344 C 10,29.894849 11.126853,31 12.427734,31 H 24 v 14 h 4 V 29 A 2.0002,2.0002 0 0 0 26,27 H 14 V 21 H 34 V 23.427734 28.576172 45 h 4 V 28.576172 23.427734 19.423828 C 38,18.105151 36.873147,17 35.572266,17 Z"/>
 <path style="fill:#fbc295" d="M 12.427734 16 C 11.126853 16 10 17.105151 10 18.423828 L 10 27.576172 C 10 28.894849 11.126853 30 12.427734 30 L 24 30 L 24 44 L 28 44 L 28 28 A 2.0002 2.0002 0 0 0 26 26 L 14 26 L 14 20 L 34 20 L 34 22.427734 L 34 27.576172 L 34 44 L 38 44 L 38 27.576172 L 38 22.427734 L 38 18.423828 C 38 17.105151 36.873147 16 35.572266 16 L 12.427734 16 z"/>
 <path style="opacity:0.2;fill:#ffffff" d="M 12.427734 16 C 11.126853 16 10 17.105151 10 18.423828 L 10 19.423828 C 10 18.105151 11.126853 17 12.427734 17 L 35.572266 17 C 36.873147 17 38 18.105151 38 19.423828 L 38 18.423828 C 38 17.105151 36.873147 16 35.572266 16 L 12.427734 16 z M 14 26 L 14 27 L 26 27 A 2.0002 2.0002 0 0 1 28 29 L 28 28 A 2.0002 2.0002 0 0 0 26 26 L 14 26 z"/>
</svg>
